public/images/concepts.svg

<svg width="24" height="24" viewBox="0 0 24 24" fill="none" xmlns="http://www.w3.org/2000/svg">
<g clip-path="url(#clip0_7405_170)">
<path d="M12 24C13.0368 24 13.932 23.3845 14.341 22.5H9.65906C10.068 23.3845 10.9633 24 12 24Z" fill="black"/>
<path d="M11.2968 17.8124V12.1261C9.69409 11.843 8.48435 10.612 8.48435 9.14057C8.48435 8.75226 8.79916 8.43745 9.18747 8.43745C9.57578 8.43745 9.89059 8.75226 9.89059 9.14057C9.89059 9.85349 10.4784 10.4614 11.2968 10.6871V0.48056C10.8142 0.171468 10.2478 0 9.65622 0C8.17755 0 6.91625 1.06767 6.65933 2.50864C4.96607 3.00383 3.79688 4.55252 3.79688 6.32809C3.79688 7.27749 4.13297 8.1848 4.74768 8.9062C4.13301 9.6276 3.79688 10.5349 3.79688 11.4843C3.79688 13.2599 4.96607 14.8086 6.65933 15.3038C6.9162 16.7447 8.17755 17.8124 9.65622 17.8124H11.2968Z" fill="black"/>
<path d="M8.48438 19.9219C8.48438 20.5691 9.00905 21.0938 9.65625 21.0938H14.3438C14.991 21.0938 15.5156 20.5691 15.5156 19.9219V19.2188H8.48438V19.9219Z" fill="black"/>
<path d="M17.3406 2.50864C17.0838 1.06771 15.8225 0 14.3437 0C13.7522 0 13.1857 0.171468 12.7031 0.48056V5.68633C14.3059 5.9694 15.5156 7.20047 15.5156 8.67187C15.5156 9.06018 15.2008 9.37499 14.8125 9.37499C14.4242 9.37499 14.1094 9.06018 14.1094 8.67187C14.1094 7.95895 13.5215 7.35108 12.7031 7.12533V17.8124H14.3437C15.8224 17.8124 17.0838 16.7448 17.3406 15.3038C19.0339 14.8086 20.2031 13.2599 20.2031 11.4844C20.2031 10.535 19.867 9.62765 19.2523 8.90624C19.867 8.18484 20.2031 7.27753 20.2031 6.32813C20.2031 4.55252 19.0339 3.00387 17.3406 2.50864Z" fill="black"/>
<path d="M21.8912 3.98459C21.664 3.98459 21.441 3.87463 21.3055 3.67138C21.0901 3.34827 21.1775 2.91172 21.5006 2.69633L22.9068 1.75883C23.2299 1.54334 23.6665 1.63072 23.8819 1.95383C24.0973 2.27694 24.0099 2.71349 23.6868 2.92888L22.2806 3.86638C22.1608 3.9463 22.0252 3.98459 21.8912 3.98459Z" fill="black"/>
<path d="M23.2962 15.7033C23.1622 15.7033 23.0267 15.665 22.9068 15.5851L21.5006 14.6476C21.1775 14.4322 21.0901 13.9957 21.3055 13.6726C21.521 13.3494 21.9576 13.2622 22.2806 13.4776L23.6868 14.4151C24.0099 14.6304 24.0973 15.067 23.8819 15.3901C23.7464 15.5933 23.5234 15.7033 23.2962 15.7033Z" fill="black"/>
<path d="M2.10884 3.98454C1.97482 3.98454 1.8393 3.94629 1.71945 3.86637L0.313195 2.92887C-0.00991412 2.71348 -0.0972422 2.27693 0.118148 1.95382C0.333586 1.63066 0.77018 1.54338 1.0932 1.75882L2.49945 2.69632C2.82255 2.91171 2.90988 3.34826 2.69449 3.67137C2.55902 3.87457 2.33604 3.98454 2.10884 3.98454Z" fill="black"/>
<path d="M0.703852 15.7033C0.476648 15.7033 0.253664 15.5934 0.118148 15.3901C-0.0972422 15.067 -0.00991412 14.6305 0.313195 14.4151L1.71945 13.4776C2.04251 13.2621 2.4791 13.3495 2.69449 13.6726C2.90988 13.9957 2.82255 14.4322 2.49945 14.6476L1.0932 15.5851C0.973383 15.665 0.837867 15.7033 0.703852 15.7033Z" fill="black"/>
<path d="M2.1095 9.375H0.703247C0.314935 9.375 0.00012207 9.06019 0.00012207 8.67188C0.00012207 8.28356 0.314935 7.96875 0.703247 7.96875H2.1095C2.49781 7.96875 2.81262 8.28356 2.81262 8.67188C2.81262 9.06019 2.49781 9.375 2.1095 9.375Z" fill="black"/>
<path d="M23.2969 9.375H21.8906C21.5023 9.375 21.1875 9.06019 21.1875 8.67188C21.1875 8.28356 21.5023 7.96875 21.8906 7.96875H23.2969C23.6852 7.96875 24 8.28356 24 8.67188C24 9.06019 23.6852 9.375 23.2969 9.375Z" fill="black"/>
</g>
<defs>
<clipPath id="clip0_7405_170">
<rect width="24" height="24" fill="white"/>
</clipPath>
</defs>
</svg>

<svg xmlns="http://www.w3.org/2000/svg" width="24" height="24" fill="none"><g fill="#000" clip-path="url(#a)"><path d="M12 24a2.58 2.58 0 0 0 2.341-1.5H9.659A2.58 2.58 0 0 0 12 24M11.297 17.812v-5.686c-1.603-.283-2.813-1.514-2.813-2.985a.703.703 0 0 1 1.407 0c0 .712.587 1.32 1.406 1.546V.481A3.04 3.04 0 0 0 9.657 0a3.05 3.05 0 0 0-2.998 2.509 3.975 3.975 0 0 0-1.911 6.397 3.975 3.975 0 0 0 1.912 6.398 3.05 3.05 0 0 0 2.996 2.508zM8.484 19.922c0 .647.525 1.172 1.172 1.172h4.688c.647 0 1.172-.525 1.172-1.172v-.703H8.484zM17.34 2.509A3.05 3.05 0 0 0 14.345 0c-.592 0-1.158.171-1.64.48v5.206c1.602.283 2.812 1.514 2.812 2.986a.703.703 0 0 1-1.407 0c0-.713-.588-1.32-1.406-1.547v10.687h1.64a3.05 3.05 0 0 0 2.998-2.508 3.975 3.975 0 0 0 1.911-6.398 3.975 3.975 0 0 0-1.912-6.398M21.891 3.985a.703.703 0 0 1-.39-1.289l1.406-.937a.703.703 0 1 1 .78 1.17l-1.406.937a.7.7 0 0 1-.39.119M23.296 15.703a.7.7 0 0 1-.39-.118l-1.405-.937a.703.703 0 1 1 .78-1.17l1.406.937a.703.703 0 0 1-.39 1.288M2.109 3.985a.7.7 0 0 1-.39-.119L.313 2.93a.703.703 0 1 1 .78-1.17l1.406.937a.703.703 0 0 1-.39 1.289M.704 15.703a.702.702 0 0 1-.39-1.288l1.405-.937a.703.703 0 1 1 .78 1.17l-1.406.937a.7.7 0 0 1-.39.118M2.11 9.375H.703a.703.703 0 0 1 0-1.406H2.11a.703.703 0 0 1 0 1.406M23.297 9.375H21.89a.703.703 0 0 1 0-1.406h1.406a.703.703 0 0 1 0 1.406"/></g><defs><clipPath id="a"><path fill="#fff" d="M0 0h24v24H0z"/></clipPath></defs></svg>
